icon-themes/sifr_svg/cmd/lc_shrink.svg

<svg viewBox="0 0 24 24" xmlns="http://www.w3.org/2000/svg"><path d="m18 1v6.5625l-2.28125-2.28125c-.18818-.18811-.45344-.28129-.71875-.28125h-1v1c0 .26529.09304.53057.28125.71875l4 4 .28125.28125h.875l.28125-.28125 4-4c.18814-.18817.28122-.45344.28125-.71875v-1h-1c-.2653 0-.53058.0931-.71875.28125l-2.28125 2.28125v-6.5625zm-14 3v3h8c1.104569 0 2 .8954305 2 2v1h-8.5c-2.4852814 0-4.5 2.014719-4.5 4.5s2.0147186 4.5 4.5 4.5h11.5v-8.148438l-3.425781-3.4257808c-.403983-.4039182-.574219-.9266842-.574219-1.4257812v-1.9003906c-.32307-.065571-.657579-.0996094-1-.0996094zm1.5 9h8.5v3h-8.5c-.8284271 0-1.5-.671573-1.5-1.5s.6715729-1.5 1.5-1.5z" fill="#555753"/></svg>

<svg viewBox="0 0 24 24" xmlns="http://www.w3.org/2000/svg">
  <path
     style="fill:#555753"
     d="M 18 1 L 18 7.5625 L 15.71875 5.28125 C 15.53057 5.09314 15.26531 4.99996 15 5 L 14 5 L 14 6 C 14 6.26529 14.09304 6.53057 14.28125 6.71875 L 18.28125 10.71875 L 18.5625 11 L 19.4375 11 L 19.71875 10.71875 L 23.71875 6.71875 C 23.90689 6.53058 23.99997 6.26531 24 6 L 24 5 L 23 5 C 22.7347 5 22.46942 5.0931 22.28125 5.28125 L 20 7.5625 L 20 1 L 18 1 z M 4 4 L 4 7 L 12 7 C 13.104569 7 14 7.8954305 14 9 L 14 10 L 5.5 10 C 3.0147186 10 1 12.014719 1 14.5 C 1 16.985281 3.0147186 19 5.5 19 L 17 19 L 17 10.851562 L 13.574219 7.4257812 C 13.170236 7.021863 13 6.499097 13 6 L 13 4.0996094 C 12.67693 4.0340384 12.342421 4 12 4 L 4 4 z M 5.5 13 L 14 13 L 14 16 L 5.5 16 C 4.6715729 16 4 15.328427 4 14.5 C 4 13.671573 4.6715729 13 5.5 13 z "
     />
</svg>
